symbols/web/share/materialsymbolsoutlined/share_wght100gradN25fill1_48px.svg

<svg xmlns="http://www.w3.org/2000/svg" height="48" width="48"><path d="M36.1 42.7q-1.9 0-3.25-1.35T31.5 38.1q0-.4.075-.9t.275-.9L15.6 26.7q-.65.9-1.625 1.4-.975.5-2.075.5-1.9 0-3.25-1.35t-1.35-3.3q0-1.9 1.35-3.225Q10 19.4 11.9 19.4q1.15 0 2.1.475.95.475 1.6 1.375l16.25-9.55q-.2-.4-.275-.875-.075-.475-.075-.925 0-1.9 1.35-3.25T36.1 5.3q1.95 0 3.275 1.35T40.7 9.9q0 2-1.35 3.3-1.35 1.3-3.25 1.3-1.1 0-2.05-.45-.95-.45-1.65-1.35l-16.2 9.5q.15.35.225.875.075.525.075.925 0 .45-.075.9t-.225.85l16.2 9.5q.7-.8 1.625-1.275.925-.475 2.075-.475 1.9 0 3.25 1.3t1.35 3.25q0 2-1.35 3.325Q38 42.7 36.1 42.7Z"/></svg>

<svg xmlns="http://www.w3.org/2000/svg" height="48" width="48"><path d="M36.1 42.7Q34.2 42.7 32.85 41.35Q31.5 40 31.5 38.1Q31.5 37.7 31.575 37.2Q31.65 36.7 31.85 36.3L15.6 26.7Q14.95 27.6 13.975 28.1Q13 28.6 11.9 28.6Q10 28.6 8.65 27.25Q7.3 25.9 7.3 23.95Q7.3 22.05 8.65 20.725Q10 19.4 11.9 19.4Q13.05 19.4 14 19.875Q14.95 20.35 15.6 21.25L31.85 11.7Q31.65 11.3 31.575 10.825Q31.5 10.35 31.5 9.9Q31.5 8 32.85 6.65Q34.2 5.3 36.1 5.3Q38.05 5.3 39.375 6.65Q40.7 8 40.7 9.9Q40.7 11.9 39.35 13.2Q38 14.5 36.1 14.5Q35 14.5 34.05 14.05Q33.1 13.6 32.4 12.7L16.2 22.2Q16.35 22.55 16.425 23.075Q16.5 23.6 16.5 24Q16.5 24.45 16.425 24.9Q16.35 25.35 16.2 25.75L32.4 35.25Q33.1 34.45 34.025 33.975Q34.95 33.5 36.1 33.5Q38 33.5 39.35 34.8Q40.7 36.1 40.7 38.05Q40.7 40.05 39.35 41.375Q38 42.7 36.1 42.7Z"/></svg>
